!!!COM: Bach, Johann Sebastian
!!!CDT: 1685/3//-1750/7/28/
!!!OTL@@DE: Dank sei Gott in der Höhe
!!!OTL@EN:  Thanks be to God in the highest
!!!AGN: 4-Part Chorale
!!!SCT: BH 311
!!!SCT: BWV 287
**harm	**root	**kern	**kern	**kern	**kern
!	!	!bass	!tenor	!alto	!soprno
*	*Iorgan	*Iorgan	*Iorgan	*Iorgan	*Iorgan
*	*	*clefF4	*clefF4	*clefG2	*clefG2
*M4/4	*M4/4	*M4/4	*M4/4	*M4/4	*M4/4
*met(c)	*met(c)	*met(c)	*met(c)	*met(c)	*met(c)
*MM60	*MM60	*MM60	*MM60	*MM60	*MM60
*k[]	*k[]	*k[]	*k[]	*k[]	*k[]
*>[A,A,B]	*>[A,A,B]	*>[A,A,B]	*>[A,A,B]	*>[A,A,B]	*>[A,A,B]
*>A	*>A	*>A	*>A	*>A	*>A
*C:	*C:	*C:	*C:	*C:	*C:
Vb	4CC	4BB	4G	4d	4g
=1	=1	=1	=1	=1	=1
I	4FF	8C	4G	8c	4e
.	.	8BB-	.	8d	.
viiob/IV	4AA	8AA	4B-	4e	4g
.	.	8GG	.	.	.
IV	4BB-	4FF	4c	8f	4a
.	.	.	.	8e	.
V	4CC	4GG	4B	8d	4g
.	.	.	.	8e	.
=2	=2	=2	=2	=2	=2
IVb	4BB-	4AA	4c	8f	2f
.	.	.	.	8e	.
V7b	4CC	4BB	4G	4d	.
I;	4FF;	4C;	4G;	4c;	4e;
I	4FF	4C	4G	4c	4e
=3	=3	=3	=3	=3	=3
V7d	4CC	8F	4G	4B	4d
.	.	8E	.	.	.
I	4FF	8D	4G	4c	4e
.	.	8C	.	.	.
V7	2CC	4G	8G	4c	4d
.	.	.	16F	.	.
.	.	.	16E	.	.
.	.	4GG	4F	4B	4d
=4	=4	=4	=4	=4	=4
I;	2.FF;	2.C;	2.E;	2.G;	2.c;
=:|!	=:|!	=:|!	=:|!	=:|!	=:|!
*>B	*>B	*>B	*>B	*>B	*>B
Vb	4CC	8BB	4D	8G	4d
.	.	8AA	.	8A	.
=5	=5	=5	=5	=5	=5
V	4CC	8GG	4G	4B	4d
.	.	8G	.	.	.
I	4FF	8F	4C	4G	4e
.	.	8E	.	.	.
ii	4GG	8D	8F	4A	4f
.	.	8C	8E	.	.
Vb	4CC	4BB	4D	4G	8g
.	.	.	.	.	8f
=6	=6	=6	=6	=6	=6
I	4.FF	4C	8E	4.G	2e
.	.	.	8D	.	.
.	.	8EE	4C	.	.
IV7	8BB-	8FF	.	8A	.
V;	4CC;	4GG;	4G;	4B;	4d;
*G:	*G:	*G:	*G:	*G:	*G:
I	4CC	4GG	4G	4B	4d
!!linebreak: 2
=7	=7	=7	=7	=7	=7
IV	8FF	8C	8G	4c	8e
viiob	8BB	8BB	8A	.	8f#
I	4CC	8AA	4B	4d	4g
.	.	8GG	.	.	.
ii	4DD	4C	4.A	4e	8a
.	.	.	.	.	8g
V7	4GG	4D	.	4d	4f#
.	.	.	16B	.	.
.	.	.	16c	.	.
=8	=8	=8	=8	=8	=8
I;	2.CC;	2.GG;	2.B;	2.d;	2.g;
*C:	*C:	*C:	*C:	*C:	*C:
V	4CC	4GG	4D	4B	4g
=9	=9	=9	=9	=9	=9
I	4FF	8C	4E	4G	4e
.	.	4BB-	.	.	.
V7d/IV	4FF	.	4E	4c	4g
.	.	16AA	.	.	.
.	.	16GG	.	.	.
IV	4BB-	8FF	4F	4c	4a
.	.	8E	.	.	.
viio7/II	4FF#	8D	4E	4B-	4g
.	.	8C#	.	.	.
=10	=10	=10	=10	=10	=10
ii	2GG	8D	8F	4.A	2f
.	.	8E	8G	.	.
.	.	8F	4A	.	.
.	.	8G	.	8B	.
V/II;	4DD;	4A;	4A;	4c#;	4e;
vi	4DD	8A	4c	4A	4e
.	.	8G	.	.	.
=11	=11	=11	=11	=11	=11
V7d	4CC	8F	4G	4B	4d
.	.	8E	.	.	.
I	4FF	8D	4G	4c	4e
.	.	8C	.	.	.
V7	2CC	4G	8G	4c	4d
.	.	.	16F	.	.
.	.	.	16E	.	.
.	.	4GG	4F	4B	4d
=12	=12	=12	=12	=12	=12
I;	2.FF;	2.C;	2.E;	2.G;	2.c;
==|!	==|!	==|!	==|!	==|!	==|!
*-	*-	*-	*-	*-	*-
!!chor2scor: -l 2 -s 0.6 -o %b.pmx
!!!YEC: Copyright 2003 by Craig Stuart Sapp
!!!license: GNU General Public License (http://www.gnu.org/copyleft/gpl.html)
!!!SMA: 371 Bach Chorales, edited by Ludwig Erk, C.F. Peters
!!!PDT: 1850, 1865
!!!ONB: Harmony and Root analysis done manually by Craig Sapp
